X:23
T:I don't care whither or no. Ru1.023
%%VWML:RutherfordVol1-2248-p12-0p12
Z:Transcription by Village Music Project, Steve Mansfield July 2015
F:http://www.village-music-project.org.uk/
F:http://www.vwml.org/record/RutherfordVol1/2248/p12
L:1/8
W:Hey contrary sides .| Hey on your own sides :| Lead
W:Through the Top Cu. & cast off and Hands round
W:Four with the 3d Cu. .|. Lead through the Top Cu.
W:And cast off and right Hand and Left :|
Q:3/8=90
N: _B/A/ in Mss, amended to balance bar length
K:F
|:f3 edc | d3 cBA | BgB AfA | GAF EDC |
f3 edc | d3 cBA | BgB AGF | Afe f3 :|
|: faf gec | fd=B cde | faf gec | d/f/e/d/c/=B/ c2 "NB"_B/A/ |
BbB cBA | GgG AGF | GAB cde | fbg f3 :|
T:Splash'd Petticoat. Ru1.024
B:Rutherford's Country Dances Vol 1, 1756
Z:village music project, Steve Mansfield July 2015
M:6/8
L:1/8
W:Cast off one Cu. and Hands round with the 3d
W:Cu. .| Cast up and Hands round with the 2d
W:Cu. :| Clap Hands to your Partner Cross over one
W:Cu. .|. Clap Hands again :| Right Hand and Left :|
Q:3/8=90
K:G
|:G3 A3 | dBg dBG | c/d/ec dBG | F2G AFD |
G3 A3 | dBg fed | (e/f/g)e (f/g/a)f | g3 g3 :|
|: G2g G2g | G2g dBG | F2A F2d | F2G AFD |
G3 A3 | dBg fed | e/f/ge f/g/af | g3 [G,3G3B3g3] :|
